src/images/logo.svg

<svg width="101" height="36" viewBox="0 0 101 36" fill="none" xmlns="http://www.w3.org/2000/svg">
    <path d="M8.17874 24.7931V17.6655C7.63349 17.6806 7.0932 17.8265 6.60247 18.1132L1.66549 21.0055C0.634472 21.6141 0 22.7308 0 23.938V29.7276C0 30.9348 0.634472 32.0514 1.66549 32.655L6.60247 35.5473C7.63349 36.1509 8.90243 36.1509 9.93345 35.5473L14.8704 32.655C15.3959 32.3482 15.8122 31.9106 16.1047 31.3925L9.84423 27.7256C8.81817 27.117 8.17874 26.0003 8.17874 24.7931Z" fill="#EA6CA0"/>
    <path d="M35.2429 21.0055L30.3059 18.1132C29.8152 17.8265 29.2749 17.6806 28.7297 17.6655V24.7931C28.7297 26.0003 28.0952 27.117 27.0642 27.7206L20.8037 31.3875C21.0912 31.9056 21.5126 32.3432 22.038 32.65L26.975 35.5423C28.006 36.1459 29.2749 36.1459 30.3059 35.5423L35.2429 32.65C36.2739 32.0464 36.9084 30.9297 36.9084 29.7225V23.938C36.9134 22.7308 36.2739 21.6141 35.2429 21.0055Z" fill="#6BEDD4"/>
    <path d="M20.1246 9.66271L26.4694 13.3799C26.6379 12.9725 26.7321 12.5248 26.7321 12.0671V6.27749C26.7321 5.07028 26.0976 3.95361 25.0666 3.35001L20.1246 0.452704C19.0936 -0.150901 17.8247 -0.150901 16.7937 0.452704L11.8567 3.34498C10.8257 3.94858 10.1912 5.06525 10.1912 6.27246V12.062C10.1912 12.5198 10.2854 12.9674 10.4539 13.3749L16.7986 9.65768C17.8197 9.0591 19.0936 9.0591 20.1246 9.66271Z" fill="#EA9D13"/>
    <path d="M16.5458 23.9379C16.5458 22.7307 15.9114 21.614 14.8803 21.0104L9.94335 18.1182C9.3981 17.8013 8.79337 17.6554 8.18369 17.6705V24.7981C8.18369 26.0053 8.81816 27.1219 9.84917 27.7255L16.1096 31.3924C16.3872 30.8945 16.5458 30.321 16.5458 29.7275V23.9379Z" fill="white"/>
    <path d="M28.7297 24.7931V17.6655C28.125 17.6504 27.5153 17.7963 26.97 18.1132L22.033 21.0054C21.002 21.609 20.3676 22.7257 20.3676 23.9329V29.7225C20.3676 30.316 20.5212 30.8895 20.8038 31.3874L27.0642 27.7205C28.0952 27.1169 28.7297 26.0003 28.7297 24.7931Z" fill="white"/>
    <path d="M11.8517 14.9945L16.7887 17.8868C17.8197 18.4904 19.0887 18.4904 20.1197 17.8868L25.0567 14.9945C25.6961 14.6223 26.1819 14.0489 26.4595 13.3799L20.1148 9.66266C19.0837 9.05906 17.8148 9.05906 16.7838 9.66266L10.4391 13.3799C10.7266 14.0438 11.2123 14.6173 11.8517 14.9945Z" fill="white"/>
    <path d="M56.3342 8.49585C55.4122 8.49585 54.5795 9.06927 54.2374 9.93947L50.3315 19.904C50.267 20.0649 50.1183 20.1706 49.9498 20.1706C49.7813 20.1706 49.6326 20.0649 49.5681 19.904L45.6522 9.83384C45.34 9.024 44.5717 8.49585 43.7141 8.49585H39.367L47.0699 27.4893C47.0699 27.5144 47.0699 27.5346 47.0699 27.5597C46.4404 28.9078 45.568 29.4812 44.1454 29.4812C43.1837 29.4812 42.1973 29.1542 41.4191 28.5858L40.1155 31.297C39.7685 32.0163 40.0808 32.8865 40.8094 33.1933C41.8801 33.6461 43.1738 33.9227 44.3883 33.9227C46.3214 33.9227 47.858 33.4901 49.127 32.5445C50.4455 31.5586 51.4715 30.0194 52.3439 27.8062L60.1014 8.50088H56.3342V8.49585Z" fill="white"/>
    <path d="M77.8071 16.9311V13.1536H73.6037C72.8503 13.1536 72.2406 13.7723 72.2406 14.5368V16.9311C72.2406 17.1625 72.0572 17.3486 71.8292 17.3486H66.9764C66.8228 17.3486 66.684 17.2631 66.6146 17.1223C66.5452 16.9814 66.5551 16.8154 66.6394 16.6846L75.9235 2.92749H71.1402C70.3719 2.92749 69.6531 3.30474 69.212 3.93853L59.8882 17.3386C59.566 17.8013 59.3925 18.3546 59.3925 18.918V22.0366H71.621C71.849 22.0366 72.0324 22.2227 72.0324 22.4541V26.7649H77.8021V22.4642C77.8021 22.2328 77.9905 22.0416 78.2185 22.0416H81.3512V17.3536H78.2086C77.9905 17.3486 77.8071 17.1625 77.8071 16.9311Z" fill="white"/>
    <path d="M92.1868 22.0719C92.0183 22.0719 91.8646 21.9662 91.8051 21.8003C91.7456 21.6393 91.7853 21.4532 91.9092 21.3325L96.4199 17.0318C99.6964 13.9232 100.351 11.8508 100.351 9.51689C100.351 5.21118 96.866 2.42957 91.4681 2.42957C90.4717 2.42957 89.525 2.52514 88.6328 2.71125C87.5968 2.92754 86.6253 3.4406 85.9462 4.26553C83.8445 6.81576 86.4518 9.48671 86.4518 9.48671C87.463 8.04309 89.0491 7.22319 90.8485 7.22319C93.0642 7.22319 94.3331 8.30465 94.3331 10.1859C94.3331 11.4283 93.9415 12.6355 92.0183 14.4815L84.8904 21.3576C83.8098 22.3988 83.2001 23.8475 83.2001 25.3615V26.7548H100.995V22.0668H92.1868V22.0719Z" fill="white"/>
</svg>

<svg width="101" height="36" viewBox="0 0 101 36" fill="none" xmlns="http://www.w3.org/2000/svg"><path d="M8.179 24.793v-7.127a3.292 3.292 0 00-1.577.447l-4.937 2.893A3.404 3.404 0 000 23.938v5.79a3.39 3.39 0 001.665 2.927l4.937 2.892a3.29 3.29 0 003.331 0l4.937-2.892a3.365 3.365 0 001.235-1.263l-6.26-3.666a3.414 3.414 0 01-1.666-2.933z" fill="#EA6CA0"/><path d="M35.243 21.006l-4.937-2.893a3.292 3.292 0 00-1.576-.447v7.127a3.39 3.39 0 01-1.666 2.928l-6.26 3.666c.287.519.709.956 1.234 1.263l4.937 2.892a3.29 3.29 0 003.33 0l4.938-2.892a3.39 3.39 0 001.665-2.927v-5.785a3.393 3.393 0 00-1.665-2.932z" fill="#6BEDD4"/><path d="M20.125 9.663l6.344 3.717c.169-.408.263-.855.263-1.313v-5.79a3.39 3.39 0 00-1.665-2.927L20.125.453a3.29 3.29 0 00-3.331 0l-4.937 2.892a3.39 3.39 0 00-1.666 2.927v5.79c0 .458.094.905.263 1.313l6.345-3.717a3.293 3.293 0 013.326.005z" fill="#EA9D13"/><path d="M16.546 23.938a3.39 3.39 0 00-1.666-2.928l-4.937-2.892a3.318 3.318 0 00-1.76-.447v7.127a3.39 3.39 0 001.666 2.928l6.26 3.666a3.427 3.427 0 00.437-1.665v-5.79zM28.73 24.793v-7.127a3.33 3.33 0 00-1.76.447l-4.937 2.892a3.39 3.39 0 00-1.665 2.928v5.79c0 .593.153 1.167.436 1.664l6.26-3.666a3.39 3.39 0 001.666-2.928zM11.852 14.995l4.937 2.892a3.29 3.29 0 003.33 0l4.938-2.893a3.348 3.348 0 001.402-1.614l-6.344-3.717a3.29 3.29 0 00-3.331 0l-6.345 3.717a3.467 3.467 0 001.413 1.614zM56.334 8.496c-.922 0-1.755.573-2.097 1.443l-3.906 9.965a.413.413 0 01-.381.267.413.413 0 01-.382-.267l-3.916-10.07a2.077 2.077 0 00-1.938-1.338h-4.347l7.703 18.993v.07c-.63 1.349-1.502 1.922-2.925 1.922a4.708 4.708 0 01-2.726-.895l-1.303 2.711c-.347.72-.035 1.59.693 1.896 1.071.453 2.365.73 3.58.73 1.932 0 3.469-.433 4.738-1.379 1.319-.985 2.344-2.525 3.217-4.738L60.1 8.501h-3.767v-.005zM77.807 16.931v-3.777h-4.203c-.754 0-1.363.618-1.363 1.383v2.394a.413.413 0 01-.412.418h-4.853a.4.4 0 01-.361-.227.445.445 0 01.024-.437l9.285-13.758H71.14c-.768 0-1.487.378-1.928 1.012l-9.324 13.4a2.77 2.77 0 00-.495 1.579v3.119H71.62c.228 0 .411.186.411.417v4.31h5.77v-4.3c0-.231.188-.422.416-.422h3.133v-4.688H78.21a.42.42 0 01-.402-.423zM92.187 22.072a.406.406 0 01-.382-.272.443.443 0 01.104-.468l4.51-4.3c3.277-3.109 3.932-5.181 3.932-7.515 0-4.306-3.485-7.087-8.883-7.087-.996 0-1.943.095-2.835.281-1.036.217-2.008.73-2.687 1.555-2.102 2.55.506 5.22.506 5.22 1.011-1.443 2.597-2.263 4.397-2.263 2.215 0 3.484 1.082 3.484 2.963 0 1.242-.391 2.45-2.315 4.296l-7.128 6.876a5.56 5.56 0 00-1.69 4.003v1.394h17.795v-4.688h-8.808v.005z" fill="#fff"/></svg>
